frontend/src/assets/svg/icon-share.svg

<?xml version="1.0" encoding="UTF-8"?>
<svg width="40px" height="40px" viewBox="0 0 40 40" version="1.1" xmlns="http://www.w3.org/2000/svg" xmlns:xlink="http://www.w3.org/1999/xlink">
    <!-- Generator: sketchtool 52 (66869) - http://www.bohemiancoding.com/sketch -->
    <title>115534CD-CB96-44F0-9F60-9EC391029A76</title>
    <desc>Created with sketchtool.</desc>
    <g id="Page-1" stroke="none" stroke-width="1" fill="none" fill-rule="evenodd">
        <g id="2.3-Event-Current-(My-event)" transform="translate(-1280.000000, -346.000000)" fill-rule="nonzero">
            <g id="Cover" transform="translate(0.000000, 82.000000)">
                <g id="Info" transform="translate(0.000000, 195.000000)">
                    <g id="icon/circle/share" transform="translate(1280.000000, 69.000000)">
                        <g>
                            <circle id="Oval" stroke="#FFFFFF" fill="#303644" cx="20" cy="20" r="19.5"></circle>
                            <path d="M25.9685412,23.4404816 C24.9238948,23.4404816 23.9924513,23.932004 23.3914368,24.6953229 L17.3721908,21.2201734 C17.5240655,20.8427523 17.6084794,20.4311906 17.6084794,20.0000195 C17.6084794,19.5688876 17.5240264,19.1573259 17.3721908,18.7798657 L23.3914368,15.3047162 C23.9924903,16.067996 24.9238948,16.5595575 25.9685412,16.5595575 C27.7770142,16.5595575 29.2483004,15.0882322 29.2483004,13.2797983 C29.2483004,11.4713253 27.7770533,10 25.9685412,10 C24.1600291,10 22.688782,11.4712862 22.688782,13.2797202 C22.688782,13.7108912 22.773274,14.122531 22.9251877,14.5000303 L16.9060198,17.9751797 C16.3049663,17.2118219 15.3734837,16.7202212 14.3287592,16.7202212 C12.5202862,16.7202212 11.049,18.1915465 11.049,19.9999805 C11.049,21.8084144 12.5202862,23.2797397 14.3287592,23.2797397 C15.3734837,23.2797397 16.3049663,22.7881391 16.9060198,22.0247812 L22.9251877,25.4999697 C22.773274,25.877469 22.688782,26.2890697 22.688782,26.7202798 C22.688782,28.5287529 24.1600681,30 25.9685412,30 C27.7770142,30 29.2483004,28.5287138 29.2483004,26.7202798 C29.2483004,24.9118459 27.7770533,23.4404816 25.9685412,23.4404816 Z M25.9685412,10.9299982 C27.2642027,10.9299982 28.3183413,11.9840977 28.3183413,13.2797202 C28.3183413,14.5753817 27.2642418,15.6295203 25.9685412,15.6295203 C24.6728796,15.6295203 23.6187411,14.5753817 23.6187411,13.2797202 C23.6187801,11.9840586 24.6729187,10.9299982 25.9685412,10.9299982 Z M14.3287592,22.3497806 C13.0330977,22.3497806 11.9789591,21.295642 11.9789591,19.9999805 C11.9789591,18.7043189 13.0330586,17.6501804 14.3287592,17.6501804 C15.6244208,17.6501804 16.6785593,18.7043189 16.6785593,19.9999805 C16.6785593,21.295642 15.6244208,22.3497806 14.3287592,22.3497806 Z M25.9685412,29.0699628 C24.6728796,29.0699628 23.6187411,28.0158633 23.6187411,26.7202408 C23.6187411,25.4245792 24.6728406,24.3704407 25.9685412,24.3704407 C27.2642027,24.3704407 28.3183413,25.4245792 28.3183413,26.7202408 C28.3183413,28.0159023 27.2642027,29.0699628 25.9685412,29.0699628 Z" id="Shape" fill="#FFFFFF"></path>
                        </g>
                    </g>
                </g>
            </g>
        </g>
    </g>
</svg>

<svg width="40" height="40" xmlns="http://www.w3.org/2000/svg"><g fill-rule="nonzero" fill="none"><circle stroke="#FFF" fill="#303644" cx="20" cy="20" r="19.5"/><path d="M25.969 23.44a3.275 3.275 0 0 0-2.578 1.255l-6.019-3.475a3.26 3.26 0 0 0 0-2.44l6.02-3.475a3.275 3.275 0 0 0 2.577 1.255 3.283 3.283 0 0 0 3.28-3.28 3.283 3.283 0 0 0-3.28-3.28 3.283 3.283 0 0 0-3.28 3.28c0 .43.084.843.236 1.22l-6.019 3.475a3.275 3.275 0 0 0-2.577-1.255 3.283 3.283 0 0 0-3.28 3.28 3.283 3.283 0 0 0 3.28 3.28 3.275 3.275 0 0 0 2.577-1.255l6.02 3.475c-.153.377-.237.79-.237 1.22a3.283 3.283 0 0 0 3.28 3.28 3.283 3.283 0 0 0 3.28-3.28 3.283 3.283 0 0 0-3.28-3.28zm0-12.51a2.352 2.352 0 0 1 2.35 2.35 2.352 2.352 0 0 1-2.35 2.35 2.352 2.352 0 0 1-2.35-2.35 2.352 2.352 0 0 1 2.35-2.35zm-11.64 11.42a2.352 2.352 0 0 1-2.35-2.35 2.352 2.352 0 0 1 2.35-2.35 2.352 2.352 0 0 1 2.35 2.35 2.352 2.352 0 0 1-2.35 2.35zm11.64 6.72a2.352 2.352 0 0 1-2.35-2.35 2.352 2.352 0 0 1 2.35-2.35 2.352 2.352 0 0 1 2.35 2.35 2.352 2.352 0 0 1-2.35 2.35z" fill="#FFF"/></g></svg>
